X: 622
T: Düştüm Bir Yol Sevdasına
C: Ali Rızâ Avni Tınaz
O: Turkey
F: http://compmusic.upf.edu/node/140
N: acemasiran--sarki--aksak--dustum_bir--ali_riza_avni_tinaz
N: makam= acemasiran
N: form= sarki
N: usul= aksak = 9/8
M: 9/8
L: 1/16
K: C _B   
Q: 1/4=200
%%MIDI tuningsystem comma53
f6e2 d2c2 d2e2 f2 | g2 e2f6 c2d2 e2f4z2 f3e d2c2 B2A2 G2 | 
w:   |   | 
A2 F2F3GA2 B2c2 d2e2  | f2ga b4 b2a2 g4 ^f2 | \
w:   |   | 
g2 a2g6 c2d2 e2f4z2 efe2 ded2 cdc2 B2 | 
w:   | 
A2 G2c3BA2 G2F2 E2F6 f6e2 d2c2 d2 | \
w:   | 
e2 f2g2 e2f6 c2d2  | 
w:   | 
e2f4z2 f3e d2c2 B2 | A2 G2A2 F2F3GA2 B2c2  | \
w:   |   | 
d2e2 f2ga b4 b2a2 g4 ^f2g2 a2g6 c2d2  | 
w:   | 
e2f4z2 efe2 ded2 cd | c2 B2A2 G2c3BA2 G2F2  | \
w:   |   | 
E2F6 c4 f4 e4 f6g3ba2 g2f2  | 
w:   | 
e2f4z2 e4 f4 d4 a6g3ba2 g2f2  | e2f4z2 c4 f4 e4 f6g3ba2 g2f2  | 
w:   |   | 
e2f4z2 e4 f4 d4 a6g3ba2 g2f2  | e2f4z2 c4 d4 c2 | \
w:   |   | 
_e2 d2c2 B2d4c2 B2A2  | 
w:   | 
^G2A4z2 d4 c2B2 d2 | c2 B2A2 G2c3BA2 G2F2  | \
w:   |   | 
E2F4z2 c4 d4 c2 | 
w:   | 
_e2 d2c2 B2d4c2 B2A2  | ^G2A4z2 d4 c2B2 d2 | \
w:   |   | 
c2 B2A2 G2c3BA2 G2F2  | 
w:   | 
E2F4z2 ^g4 a4 a2 | ^g2 a6g3ba2 g2f2  | \
w:   |   | 
^g2a4z2 =g4 g4 g4 _7/8a2g2 f2c'3_1/4ba2 g2f2  | 
w:   | 
e2f4z2 c4 d4 c2 | _e2 d2c2 B2d4c2 B2A2  | \
w:   |   | 
^G2A4z2 d4 c2B2 d2 | 
w:   | 
c2 B2A2 G2c3BA2 G2F2  | E2F4z2 c4 d4 c2 | \
w:   |   | 
_e2 d2c2 B2d4c2 B2A2  | 
w:   | 
^G2A4z2 d4 c2B2 d2 | c2 B2A2 G2c3BA2 G2F2  | \
w:   |   | 
E2F4z2 |
w:   | 


